src/Seller Sites/Run Fest Run/Web/images/Section-Line-Blue-Bottom.svg

<svg width="1440" height="87" viewBox="0 0 1440 87" fill="none" xmlns="http://www.w3.org/2000/svg">
<mask id="mask0" mask-type="alpha" maskUnits="userSpaceOnUse" x="0" y="-1" width="1440" height="88">
<rect x="1440" y="86.7378" width="1440" height="86.7382" transform="rotate(-180 1440 86.7378)" fill="#C4C4C4"/>
</mask>
<g mask="url(#mask0)">
<path d="M-723.709 -89.6186C-898.329 -136.603 -1036.55 -193.82 -1129.21 -257.478C-1230.26 -323.855 -1284.55 -395.427 -1288.87 -467.984L-1288.87 -474.397C-1293.96 -591.066 -1151.9 -704.25 -889.445 -792.64C-785.933 -830.495 -661.172 -863.015 -520.407 -888.834C-451.064 -901.397 -376.901 -911.567 -299.426 -919.135C-38.8619 -942.389 232.979 -953.218 505.497 -951.2C847.433 -953.29 1188.18 -938.823 1513.72 -908.393C1575.04 -902.301 1614.27 -898.133 1630.29 -895.888C1791.5 -875.038 1934.44 -843.912 2048.5 -804.824C2224.53 -748.419 2363.97 -683.241 2460.07 -612.435C2552.21 -533.821 2595.97 -451.116 2589.35 -368.101L2589.35 -366.338C2591.52 -303.123 2536.26 -240.858 2429.13 -185.813C2331 -133.947 2199.76 -87.9715 2042.42 -50.3389C1860.42 -10.0362 1659.74 22.6172 1446.32 46.6571C1223.71 72.9932 985.661 86.6028 745.261 86.7381L739.184 86.7381C463.822 86.1689 192.183 68.2253 -56.8998 34.1517C-299.66 3.02693 -524.542 -38.7147 -723.709 -89.6186Z" fill="#153863"/>
</g>
</svg>

<?xml version="1.0" encoding="utf-8"?>
<!-- Generator: Adobe Illustrator 23.1.1, SVG Export Plug-In . SVG Version: 6.00 Build 0)  -->
<svg version="1.1" id="Layer_1" xmlns="http://www.w3.org/2000/svg" xmlns:xlink="http://www.w3.org/1999/xlink" x="0px" y="0px"
	 viewBox="0 0 1440 87" style="enable-background:new 0 0 1440 87;" xml:space="preserve">
<style type="text/css">
	.st0{fill:#C4C4C4;filter:url(#Adobe_OpacityMaskFilter);}
	.st1{mask:url(#mask0_1_);}
	.st2{fill:#281840;}
</style>
<defs>
	<filter id="Adobe_OpacityMaskFilter" filterUnits="userSpaceOnUse" x="-1289" y="-951.4" width="3879" height="1038.2">
		<feColorMatrix  type="matrix" values="1 0 0 0 0  0 1 0 0 0  0 0 1 0 0  0 0 0 1 0"/>
	</filter>
</defs>
<mask maskUnits="userSpaceOnUse" x="-1289" y="-951.4" width="3879" height="1038.2" id="mask0_1_">
	<rect y="0" class="st0" width="1440" height="86.7"/>
</mask>
<g class="st1">
	<path class="st2" d="M-723.7-89.6c-174.6-47-312.8-104.2-405.5-167.9c-101.1-66.4-155.3-137.9-159.7-210.5v-6.4
		c-5.1-116.7,137-229.9,399.4-318.2c103.5-37.9,228.3-70.4,369-96.2c69.3-12.6,143.5-22.7,221-30.3
		c260.6-23.3,532.4-34.1,804.9-32.1c341.9-2.1,682.7,12.4,1008.2,42.8c61.3,6.1,100.6,10.3,116.6,12.5
		c161.2,20.8,304.1,52,418.2,91.1c176,56.4,315.5,121.6,411.6,192.4c92.1,78.6,135.9,161.3,129.3,244.3v1.8
		c2.2,63.2-53.1,125.5-160.2,180.5C2331-133.9,2199.8-88,2042.4-50.3c-182,40.3-382.7,73-596.1,97C1223.7,73,985.7,86.6,745.3,86.7
		h-6.1c-275.4-0.6-547-18.5-796.1-52.6C-299.7,3-524.5-38.7-723.7-89.6z"/>
</g>
</svg>
